src/logo.svg

<?xml version="1.0" encoding="UTF-8"?>
<svg width="138px" height="10px" viewBox="0 0 138 10" version="1.1" xmlns="http://www.w3.org/2000/svg" xmlns:xlink="http://www.w3.org/1999/xlink">
    <!-- Generator: sketchtool 45.2 (43514) - http://www.bohemiancoding.com/sketch -->
    <title>5276D245-9FFD-47EC-BC1D-733756CF11EB</title>
    <desc>Created with sketchtool.</desc>
    <defs></defs>
    <g id="Symbols" stroke="none" stroke-width="1" fill="none" fill-rule="evenodd">
        <g id="Logo" fill-rule="nonzero" fill="#000000">
            <g id="Shape">
                <path d="M8.87150538,4.50010753 C10.8770968,4.49430108 12.4926882,3.72698925 12.4926882,2.28784946 C12.4926882,0.765806452 10.5315054,0 8.00150538,0 L0,0 L0,0.220537634 L2.38731183,0.220537634 L2.38731183,9.50387097 L0,9.50387097 L0,9.72225806 L8.92333333,9.72225806 C11.923871,9.72225806 13.4146237,8.44763441 13.4146237,7.14419355 C13.4146237,5.3688172 11.2635484,4.49322581 8.87150538,4.50010753 Z M5.15268817,0.220537634 L7.08150538,0.220537634 C8.94430108,0.220537634 10.021828,0.685698925 10.021828,2.30387097 C10.021828,3.99107527 8.90913978,4.42978495 7.55612903,4.42978495 L5.15268817,4.42978495 L5.15268817,0.220537634 Z M7.55612903,9.50387097 L5.15268817,9.50387097 L5.15268817,4.63494624 L7.46688172,4.63494624 C9.33913978,4.63494624 10.7080645,4.93967742 10.7080645,7.1344086 C10.7080645,8.93064516 9.09408602,9.50387097 7.55612903,9.50387097 Z"></path>
                <path d="M61.2788172,4.50010753 C63.2849462,4.49430108 64.9007527,3.72698925 64.9007527,2.28784946 C64.9004301,0.765806452 62.9389247,0 60.4093548,0 L52.4073118,0 L52.4073118,0.220537634 L54.7951613,0.220537634 L54.7951613,9.50387097 L52.4073118,9.50387097 L52.4073118,9.72225806 L61.3307527,9.72225806 C64.3312903,9.72225806 65.8219355,8.44763441 65.8219355,7.14419355 C65.8219355,5.3688172 63.6713978,4.49322581 61.2788172,4.50010753 Z M57.56,0.220537634 L59.4889247,0.220537634 C61.3517204,0.220537634 62.4291398,0.685698925 62.4291398,2.30387097 C62.4291398,3.99107527 61.3170968,4.42978495 59.9635484,4.42978495 L57.5598925,4.42978495 L57.56,0.220537634 L57.56,0.220537634 Z M59.9635484,9.50387097 L57.5598925,9.50387097 L57.5598925,4.63494624 L59.8741935,4.63494624 C61.7464516,4.63494624 63.1156989,4.93967742 63.1156989,7.1344086 C63.1160215,8.93064516 61.5013978,9.50387097 59.9635484,9.50387097 Z"></path>
                <path d="M26.7625806,0.220537634 L29.2288172,0.220537634 L29.2288172,6.44935484 C29.2288172,8.69021505 27.1334409,9.51225806 24.8936559,9.51225806 C23.0995699,9.51225806 21.1984946,8.91849462 21.1984946,6.61408602 L21.1984946,0.220537634 L23.605914,0.220537634 L23.605914,0 L16.0849462,0 L16.0849462,0.220537634 L18.4523656,0.220537634 L18.4523656,6.61408602 C18.4523656,9.33494624 22.0741935,9.95591398 24.4032258,9.95591398 C27.2226882,9.95591398 29.5422581,8.91849462 29.5422581,6.44935484 L29.5422581,0.220537634 L32.1249462,0.220537634 L32.1249462,0 L26.7627957,0 L26.7625806,0.220537634 L26.7625806,0.220537634 Z"></path>
                <path d="M48.9609677,9.62677419 C48.2548387,9.62677419 47.8037634,9.25666667 47.8037634,8.55677419 L47.8037634,7.32301075 C47.8037634,5.9516129 46.5873118,4.66258065 43.5478495,4.66258065 C45.6464516,4.66258065 47.2149462,3.66129032 47.2149462,2.38602151 C47.2152688,1.04247312 45.4694624,0 42.6253763,0 L34.3477419,0 L34.3477419,0.220537634 L36.7350538,0.220537634 L36.7350538,9.50387097 L34.3477419,9.50387097 L34.3477419,9.72225806 L41.7307527,9.72225806 L41.7307527,9.50387097 L39.5004301,9.50387097 L39.5004301,4.77204301 L42.2337634,4.77204301 C43.8210753,4.77204301 44.9791398,5.30053763 44.9791398,6.5344086 L44.9791398,7.20268817 C44.9791398,9.24344086 46.8626882,9.95591398 48.4317204,9.95591398 C49.2744086,9.95591398 49.8041935,9.7644086 50.2158065,9.47548387 L50.0498925,9.35483871 C49.7941935,9.55956989 49.4907527,9.62677419 48.9609677,9.62677419 Z M41.6273118,4.5527957 L39.5004301,4.5527957 L39.5004301,0.220537634 L41.5286022,0.220537634 C43.5084946,0.220537634 44.4498925,0.928494624 44.4498925,2.44086022 C44.4498925,3.99677419 43.2412903,4.5527957 41.6273118,4.5527957 Z"></path>
                <path d="M101.166882,9.62677419 C100.461183,9.62677419 100.009677,9.25666667 100.009677,8.55677419 L100.009677,7.32301075 C100.009677,5.9516129 98.7947312,4.66258065 95.7548387,4.66258065 C97.8531183,4.66258065 99.4226882,3.66129032 99.4226882,2.38602151 C99.4226882,1.04247312 97.6764516,-7.10542736e-15 94.8327957,-7.10542736e-15 L86.554086,-7.10542736e-15 L86.554086,0.220537634 L88.9408602,0.220537634 L88.9408602,9.50387097 L86.554086,9.50387097 L86.554086,9.72225806 L93.9370968,9.72225806 L93.9370968,9.50387097 L91.7067742,9.50387097 L91.7067742,4.77204301 L94.4401075,4.77204301 C96.0267742,4.77204301 97.1860215,5.30053763 97.1860215,6.5344086 L97.1860215,7.20268817 C97.1860215,9.24344086 99.0688172,9.95591398 100.637634,9.95591398 C101.48086,9.95591398 102.010323,9.7644086 102.423011,9.47548387 L102.255806,9.35483871 C102.00172,9.55956989 101.696129,9.62677419 101.166882,9.62677419 Z M93.8332258,4.5527957 L91.7068817,4.5527957 L91.7068817,0.220537634 L93.7355914,0.220537634 C95.7149462,0.220537634 96.6558065,0.928494624 96.6558065,2.44086022 C96.6558065,3.99677419 95.4472043,4.5527957 93.8332258,4.5527957 Z"></path>
                <path d="M119.254194,9.62677419 C118.548495,9.62677419 118.096882,9.25666667 118.096882,8.55677419 L118.096882,7.32301075 C118.096882,5.9516129 116.88086,4.66258065 113.840968,4.66258065 C115.939247,4.66258065 117.508817,3.66129032 117.508817,2.38602151 C117.508817,1.04247312 115.762581,-7.10542736e-15 112.918817,-7.10542736e-15 L104.64129,-7.10542736e-15 L104.64129,0.220537634 L107.028065,0.220537634 L107.028065,9.50387097 L104.64129,9.50387097 L104.64129,9.72225806 L112.024301,9.72225806 L112.024301,9.50387097 L109.793978,9.50387097 L109.793978,4.77204301 L112.527312,4.77204301 C114.113978,4.77204301 115.272151,5.30053763 115.272151,6.5344086 L115.272151,7.20268817 C115.272151,9.24344086 117.156022,9.95591398 118.724516,9.95591398 C119.567957,9.95591398 120.097204,9.7644086 120.509892,9.47548387 L120.343226,9.35483871 C120.088065,9.55956989 119.784624,9.62677419 119.254194,9.62677419 Z M111.920645,4.5527957 L109.794301,4.5527957 L109.794301,0.220537634 L111.823011,0.220537634 C113.802366,0.220537634 114.743226,0.928494624 114.743226,2.44086022 C114.743226,3.99677419 113.534624,4.5527957 111.920645,4.5527957 Z"></path>
                <path d="M78.0296774,9.50387097 L74.1562366,9.50387097 L74.1562366,4.84107527 L75.606129,4.84107527 C77.3891398,4.84107527 78.0380645,5.91053763 78.0380645,6.84311828 L78.332043,6.84311828 L78.332043,2.59365591 L78.0380645,2.59365591 C78.0380645,3.53978495 77.3891398,4.6216129 75.606129,4.6216129 L74.1562366,4.6216129 L74.1562366,0.220537634 L77.9711828,0.220537634 C80.3841935,0.220537634 81.4815054,1.71397849 81.4815054,2.98935484 L81.7954839,2.98935484 L81.7954839,0.0409677419 L81.7164516,0 L69.0022581,0 L69.0022581,0.220537634 L71.4103226,0.220537634 L71.4103226,9.50387097 L69.0022581,9.50387097 L69.0022581,9.72225806 L82.7370968,9.72225806 L82.795914,9.68182796 L82.795914,6.45913978 L82.5019355,6.45913978 C82.5019355,7.8716129 81.1873118,9.50387097 78.0296774,9.50387097 Z"></path>
                <polygon points="132.001075 0 132.001075 0.220537634 134.622043 0.220537634 130.59086 5.06010753 126.353763 0.220537634 128.965269 0.220537634 128.965269 0 120.856667 0 120.856667 0.220537634 123.390538 0.220537634 127.943548 5.48537634 127.943548 9.50387097 125.536882 9.50387097 125.536882 9.72225806 133.056344 9.72225806 133.056344 9.50387097 130.649677 9.50387097 130.649677 5.43064516 135.011613 0.220537634 137.14957 0.220537634 137.14957 0"></polygon>
            </g>
        </g>
    </g>
</svg>

<svg xmlns="http://www.w3.org/2000/svg" width="138" height="10" viewBox="0 0 138 10">
    <g fill="#000" fill-rule="nonzero">
        <path d="M8.872 4.5c2.005-.006 3.62-.773 3.62-2.212C12.493.766 10.533 0 8.003 0H0v.22h2.387v9.284H0v.218h8.923c3 0 4.492-1.274 4.492-2.578 0-1.775-2.151-2.65-4.543-2.644zM5.152.22h1.93c1.862 0 2.94.466 2.94 2.084 0 1.687-1.113 2.126-2.466 2.126H5.153V.22zm2.404 9.284H5.153v-4.87h2.314c1.872 0 3.241.306 3.241 2.5 0 1.797-1.614 2.37-3.152 2.37zM61.279 4.5c2.006-.006 3.622-.773 3.622-2.212C64.9.766 62.939 0 60.409 0h-8.002v.22h2.388v9.284h-2.388v.218h8.924c3 0 4.49-1.274 4.49-2.578 0-1.775-2.15-2.65-4.542-2.644zM57.56.22h1.929c1.863 0 2.94.466 2.94 2.084 0 1.687-1.112 2.126-2.465 2.126H57.56V.22zm2.404 9.284H57.56v-4.87h2.314c1.872 0 3.242.306 3.242 2.5 0 1.797-1.615 2.37-3.152 2.37zM26.763.22h2.466v6.23c0 2.24-2.096 3.062-4.335 3.062-1.794 0-3.696-.594-3.696-2.898V.221h2.408V0h-7.521v.22h2.367v6.394c0 2.72 3.622 3.342 5.951 3.342 2.82 0 5.14-1.038 5.14-3.507V.221h2.582V0h-5.362v.22zM48.961 9.627c-.706 0-1.157-.37-1.157-1.07V7.323c0-1.371-1.217-2.66-4.256-2.66 2.098 0 3.667-1.002 3.667-2.277 0-1.344-1.746-2.386-4.59-2.386h-8.277v.22h2.387v9.284h-2.387v.218h7.383v-.218H39.5V4.772h2.733c1.587 0 2.745.529 2.745 1.762v.669c0 2.04 1.884 2.753 3.453 2.753.842 0 1.372-.192 1.784-.48l-.166-.121c-.256.205-.56.272-1.089.272zm-7.334-5.074H39.5V.22h2.029c1.98 0 2.92.707 2.92 2.22 0 1.556-1.208 2.112-2.822 2.112zM101.167 9.627c-.706 0-1.157-.37-1.157-1.07V7.323c0-1.371-1.215-2.66-4.255-2.66 2.098 0 3.668-1.002 3.668-2.277 0-1.344-1.747-2.386-4.59-2.386h-8.279v.22h2.387v9.284h-2.387v.218h7.383v-.218h-2.23V4.772h2.733c1.587 0 2.746.529 2.746 1.762v.669c0 2.04 1.883 2.753 3.452 2.753.843 0 1.372-.192 1.785-.48l-.167-.121c-.254.205-.56.272-1.09.272zm-7.334-5.074h-2.126V.22h2.029c1.979 0 2.92.707 2.92 2.22 0 1.556-1.209 2.112-2.823 2.112zM119.254 9.627c-.706 0-1.157-.37-1.157-1.07V7.323c0-1.371-1.216-2.66-4.256-2.66 2.098 0 3.668-1.002 3.668-2.277 0-1.344-1.746-2.386-4.59-2.386h-8.278v.22h2.387v9.284h-2.387v.218h7.383v-.218h-2.23V4.772h2.733c1.587 0 2.745.529 2.745 1.762v.669c0 2.04 1.884 2.753 3.453 2.753.843 0 1.372-.192 1.785-.48l-.167-.121c-.255.205-.558.272-1.089.272zm-7.333-5.074h-2.127V.22h2.029c1.98 0 2.92.707 2.92 2.22 0 1.556-1.208 2.112-2.822 2.112zM78.03 9.504h-3.874V4.84h1.45c1.783 0 2.432 1.07 2.432 2.002h.294v-4.25h-.294c0 .947-.649 2.029-2.432 2.029h-1.45V.22h3.815c2.413 0 3.51 1.493 3.51 2.768h.314V.041L81.716 0H69.002v.22h2.408v9.284h-2.408v.218h13.735l.059-.04V6.459h-.294c0 1.413-1.315 3.045-4.472 3.045zM132.001 0v.22h2.621l-4.031 4.84-4.237-4.84h2.611V0h-8.108v.22h2.534l4.553 5.265v4.019h-2.407v.218h7.52v-.218h-2.407V5.43l4.362-5.21h2.138V0z"/>
    </g>
</svg>
